X: 47
M: 4/4
L: 1/8
K: D
d3 e f2 ed | c2 ed cB "b."A2 | d3  e fe de | f2 a2 a3 A |
d3 e f2 ed | c2 ed cB "b."A2 | A2 Bc dB AG | F2 D2 D2 :|
P: Var:
"a."FG || "b."AA | "c"[E2A,2][E2A,2] |]


